X:1
T: Skippin' Cat $1(R-122)
I: Skippin' Cat		R-122	G	reel
C: Jack Link \2511986
M: C|
R: reel
K: G
B,C| "G"DCB,C DCB,C| DGBG "C"c2 Bc| "G"dedc BAG=F| "C"EC3 C2B,C|
     "G"DCB,C DCB,C| DGBG "C"cdef| "D"gage dBAc |1 "G"BG3 G2 :|2 "G"BG3 G4|]
|:"D"A3c "G"B2d2| "D"ABcA "G"BG3| "D"A3c Bdef| gedc "G"BG3|
"D"A3c "G"B2d2| "D"ABcA "G"Bdef| "D"gage dBAc |1 "G"BG3 G4 :|2 "G"BG3 G2|]

